icons/circle/48/qtlmovie.svg

<svg xmlns="http://www.w3.org/2000/svg" viewBox="0 0 48 48">
 <defs>
  <linearGradient id="linearGradient3764" x1="1" x2="47" gradientUnits="userSpaceOnUse" gradientTransform="matrix(0,-1,1,0,-1.5e-6,47.999998)">
   <stop style="stop-color:#f5c755;stop-opacity:1"/>
   <stop offset="1" style="stop-color:#f6cd68;stop-opacity:1"/>
  </linearGradient>
 </defs>
 <g>
  <path d="m 36.31 5 c 5.859 4.062 9.688 10.831 9.688 18.5 c 0 12.426 -10.07 22.5 -22.5 22.5 c -7.669 0 -14.438 -3.828 -18.5 -9.688 c 1.037 1.822 2.306 3.499 3.781 4.969 c 4.085 3.712 9.514 5.969 15.469 5.969 c 12.703 0 23 -10.298 23 -23 c 0 -5.954 -2.256 -11.384 -5.969 -15.469 c -1.469 -1.475 -3.147 -2.744 -4.969 -3.781 z m 4.969 3.781 c 3.854 4.113 6.219 9.637 6.219 15.719 c 0 12.703 -10.297 23 -23 23 c -6.081 0 -11.606 -2.364 -15.719 -6.219 c 4.16 4.144 9.883 6.719 16.219 6.719 c 12.703 0 23 -10.298 23 -23 c 0 -6.335 -2.575 -12.06 -6.719 -16.219 z" style="opacity:0.05"/>
  <path d="m 41.28 8.781 c 3.712 4.085 5.969 9.514 5.969 15.469 c 0 12.703 -10.297 23 -23 23 c -5.954 0 -11.384 -2.256 -15.469 -5.969 c 4.113 3.854 9.637 6.219 15.719 6.219 c 12.703 0 23 -10.298 23 -23 c 0 -6.081 -2.364 -11.606 -6.219 -15.719 z" style="opacity:0.1"/>
  <path d="m 31.25 2.375 c 8.615 3.154 14.75 11.417 14.75 21.13 c 0 12.426 -10.07 22.5 -22.5 22.5 c -9.708 0 -17.971 -6.135 -21.12 -14.75 a 23 23 0 0 0 44.875 -7 a 23 23 0 0 0 -16 -21.875 z" style="opacity:0.2"/>
 </g>
 <g>
  <path d="m 24 1 c 12.703 0 23 10.297 23 23 c 0 12.703 -10.297 23 -23 23 -12.703 0 -23 -10.297 -23 -23 0 -12.703 10.297 -23 23 -23 z" style="fill:url(#linearGradient3764);fill-opacity:1"/>
 </g>
 <g>
  <g>
   <g transform="translate(1,1)">
    <g style="opacity:0.1">
     <!-- color: #474747 -->
    </g>
   </g>
  </g>
 </g>
 <g>
  <path d="m 40.03 7.531 c 3.712 4.084 5.969 9.514 5.969 15.469 0 12.703 -10.297 23 -23 23 c -5.954 0 -11.384 -2.256 -15.469 -5.969 4.178 4.291 10.01 6.969 16.469 6.969 c 12.703 0 23 -10.298 23 -23 0 -6.462 -2.677 -12.291 -6.969 -16.469 z" style="opacity:0.1"/>
 </g>
 <path d="m 22 13 c -2.761 0 -5 2.239 -5 5 0.001 1.576 0.747 3.058 2.01 4 l -0.01 0 c -0.554 0 -1 0.446 -1 1 l 0 1.5 -7 -2.5 0 13 7 -2.5 0 1.5 c 0 0.554 0.446 1 1 1 l 16 0 c 0.554 0 1 -0.446 1 -1 l 0 -11 c 0 -0.554 -0.446 -1 -1 -1 l -0.01 0 c 1.263 -0.942 2.01 -2.424 2.01 -4 0.002 -2.761 -2.239 -5 -5 -5 -2.761 0 -5 2.239 -5 5 0.001 1.576 0.747 3.058 2.01 4 l -4.02 0 c 1.263 -0.942 2.01 -2.424 2.01 -4 c 0.002 -2.761 -2.239 -5 -5 -5 z m 0 4 c 0.552 0 1 0.448 1 1 0 0.552 -0.448 1 -1 1 -0.552 0 -1 -0.448 -1 -1 0 -0.552 0.448 -1 1 -1 z m 10 0 c 0.552 0 1 0.448 1 1 0 0.552 -0.448 1 -1 1 -0.552 0 -1 -0.448 -1 -1 0 -0.552 0.448 -1 1 -1 z" style="fill:#000;opacity:0.1;fill-opacity:1;stroke:none;fill-rule:evenodd"/>
 <path d="m 21 12 c -2.761 0 -5 2.239 -5 5 c 0.001 1.576 0.747 3.058 2.01 4 l -0.01 0 c -0.554 0 -1 0.446 -1 1 l 0 1.5 l -7 -2.5 l 0 13 l 7 -2.5 l 0 1.5 c 0 0.554 0.446 1 1 1 l 16 0 c 0.554 0 1 -0.446 1 -1 l 0 -11 c 0 -0.554 -0.446 -1 -1 -1 l -0.01 0 c 1.263 -0.942 2.01 -2.424 2.01 -4 c 0.002 -2.761 -2.239 -5 -5 -5 c -2.761 0 -5 2.239 -5 5 c 0.001 1.576 0.747 3.058 2.01 4 l -4.02 0 c 1.263 -0.942 2.01 -2.424 2.01 -4 c 0.002 -2.761 -2.239 -5 -5 -5 z m 0 4 c 0.552 0 1 0.448 1 1 c 0 0.552 -0.448 1 -1 1 c -0.552 0 -1 -0.448 -1 -1 c 0 -0.552 0.448 -1 1 -1 z m 10 0 c 0.552 0 1 0.448 1 1 c 0 0.552 -0.448 1 -1 1 c -0.552 0 -1 -0.448 -1 -1 c 0 -0.552 0.448 -1 1 -1 z" style="fill:#fbfaf5;fill-opacity:1;stroke:none;fill-rule:evenodd"/>
</svg>

<svg xmlns="http://www.w3.org/2000/svg" viewBox="0 0 48 48">
  <defs>
    <linearGradient id="a" x1="1" x2="47" gradientUnits="userSpaceOnUse" gradientTransform="rotate(-90 24 24)">
      <stop stop-color="#f5c755"/>
      <stop offset="1" stop-color="#f6cd68"/>
    </linearGradient>
  </defs>
  <path d="M36.31 5c5.859 4.062 9.688 10.831 9.688 18.5 0 12.426-10.07 22.5-22.5 22.5-7.669 0-14.438-3.828-18.5-9.688a23.24 23.24 0 0 0 3.781 4.969 22.923 22.923 0 0 0 15.469 5.969c12.703 0 23-10.298 23-23a22.92 22.92 0 0 0-5.969-15.469A23.216 23.216 0 0 0 36.31 5zm4.969 3.781A22.911 22.911 0 0 1 47.498 24.5c0 12.703-10.297 23-23 23a22.909 22.909 0 0 1-15.719-6.219C12.939 45.425 18.662 48 24.998 48c12.703 0 23-10.298 23-23 0-6.335-2.575-12.06-6.719-16.219z" opacity=".05"/>
  <path d="M41.28 8.781a22.923 22.923 0 0 1 5.969 15.469c0 12.703-10.297 23-23 23A22.92 22.92 0 0 1 8.78 41.281 22.911 22.911 0 0 0 24.499 47.5c12.703 0 23-10.298 23-23A22.909 22.909 0 0 0 41.28 8.781z" opacity=".1"/>
  <path d="M31.25 2.375C39.865 5.529 46 13.792 46 23.505c0 12.426-10.07 22.5-22.5 22.5-9.708 0-17.971-6.135-21.12-14.75a23 23 0 0 0 44.875-7 23 23 0 0 0-16-21.875z" opacity=".2"/>
  <path d="M24 1c12.703 0 23 10.297 23 23S36.703 47 24 47 1 36.703 1 24 11.297 1 24 1z" fill="url(#a)"/>
  <path d="M40.03 7.531A22.922 22.922 0 0 1 45.999 23c0 12.703-10.297 23-23 23A22.92 22.92 0 0 1 7.53 40.031C11.708 44.322 17.54 47 23.999 47c12.703 0 23-10.298 23-23 0-6.462-2.677-12.291-6.969-16.469z" opacity=".1"/>
  <path d="M22 13a4.995 4.995 0 1 0-2.99 9H19c-.554 0-1 .446-1 1v1.5L11 22v13l7-2.5V34c0 .554.446 1 1 1h16c.554 0 1-.446 1-1V23c0-.554-.446-1-1-1h-.01A4.992 4.992 0 0 0 37 18a5 5 0 1 0-10 0 4.995 4.995 0 0 0 2.01 4h-4.02A4.992 4.992 0 0 0 27 18a5 5 0 0 0-5-5zm0 4a1 1 0 1 1 0 2 1 1 0 0 1 0-2zm10 0a1 1 0 1 1 0 2 1 1 0 0 1 0-2z" opacity=".1" fill-rule="evenodd"/>
  <path d="M21 12a4.995 4.995 0 1 0-2.99 9H18c-.554 0-1 .446-1 1v1.5L10 21v13l7-2.5V33c0 .554.446 1 1 1h16c.554 0 1-.446 1-1V22c0-.554-.446-1-1-1h-.01A4.992 4.992 0 0 0 36 17a5 5 0 1 0-10 0 4.995 4.995 0 0 0 2.01 4h-4.02A4.992 4.992 0 0 0 26 17a5 5 0 0 0-5-5zm0 4a1 1 0 1 1 0 2 1 1 0 0 1 0-2zm10 0a1 1 0 1 1 0 2 1 1 0 0 1 0-2z" fill="#fbfaf5" fill-rule="evenodd"/>
</svg>
